public/images/icons/filetree.svg

<svg width="18" height="20" viewBox="0 0 18 20" fill="none" xmlns="http://www.w3.org/2000/svg">
<path d="M7 0C7.26522 0 7.51957 0.105357 7.70711 0.292893C7.89464 0.48043 8 0.734784 8 1V5C8 5.26522 7.89464 5.51957 7.70711 5.70711C7.51957 5.89464 7.26522 6 7 6H5V8H10V7C10 6.73478 10.1054 6.48043 10.2929 6.29289C10.4804 6.10536 10.7348 6 11 6H17C17.2652 6 17.5196 6.10536 17.7071 6.29289C17.8946 6.48043 18 6.73478 18 7V11C18 11.2652 17.8946 11.5196 17.7071 11.7071C17.5196 11.8946 17.2652 12 17 12H11C10.7348 12 10.4804 11.8946 10.2929 11.7071C10.1054 11.5196 10 11.2652 10 11V10H5V16H10V15C10 14.7348 10.1054 14.4804 10.2929 14.2929C10.4804 14.1054 10.7348 14 11 14H17C17.2652 14 17.5196 14.1054 17.7071 14.2929C17.8946 14.4804 18 14.7348 18 15V19C18 19.2652 17.8946 19.5196 17.7071 19.7071C17.5196 19.8946 17.2652 20 17 20H11C10.7348 20 10.4804 19.8946 10.2929 19.7071C10.1054 19.5196 10 19.2652 10 19V18H4C3.73478 18 3.48043 17.8946 3.29289 17.7071C3.10536 17.5196 3 17.2652 3 17V6H1C0.734784 6 0.48043 5.89464 0.292893 5.70711C0.105357 5.51957 0 5.26522 0 5V1C0 0.734784 0.105357 0.48043 0.292893 0.292893C0.48043 0.105357 0.734784 0 1 0H7ZM16 16H12V18H16V16ZM16 8H12V10H16V8ZM6 2H2V4H6V2Z" fill="#000000"/>
</svg>

<svg xmlns="http://www.w3.org/2000/svg" width="18" height="20" fill="none"><path fill="#000" d="M7 0a1 1 0 0 1 1 1v4a1 1 0 0 1-1 1H5v2h5V7a1 1 0 0 1 1-1h6a1 1 0 0 1 1 1v4a1 1 0 0 1-1 1h-6a1 1 0 0 1-1-1v-1H5v6h5v-1a1 1 0 0 1 1-1h6a1 1 0 0 1 1 1v4a1 1 0 0 1-1 1h-6a1 1 0 0 1-1-1v-1H4a1 1 0 0 1-1-1V6H1a1 1 0 0 1-1-1V1a1 1 0 0 1 1-1h6Zm9 16h-4v2h4v-2Zm0-8h-4v2h4V8ZM6 2H2v2h4V2Z"/></svg>
